X:1
T: Happily Emma After
N:
C:Tune is "Sprigs of Laurel"
S:
A:
O:
R:
M:4/4
K:C
I:speed 200
%W:
% voice 1 (1 lines, 8 notes)
K:C
M:4/4
L:1/16
z16 |g2 a2 z12 |g4/3g4/3 a4/3 z12 |
%W: A1
% voice 1 (1 lines, 37 notes)
g4 |e4 g4 e4 g4 |g2 a2 g2 f2 e4 g4 |f4 e4 f4 d4 |e2 f2 e2 d2 c4 g4 |e4 g4 e4 g4 |g2 a2 g2 f2 e4 g4 |f4 e4 f4 d4 |c12 g4 |
%W: A2
% voice 1 (1 lines, 36 notes)
e4 g4 e4 g4 |g2 a2 g2 f2 e4 g4 |f4 e4 f4 d4 |e2 f2 e2 d2 c4 g4 |e4 g4 e4 g4 |g2 a2 g2 f2 e4 g4 |f4 e4 f4 d4 |c12 G4 |
%W: B1
% voice 1 (1 lines, 36 notes)
c6 d2 e4 c4 |d2 c2 B2 A2 G4 G4 |A6 B2 c4 A4 |G2 A2 G2 F2 E4 G4 |c6 d2 e4 c4 |d2 c2 B2 A2 G4 G4 |F4 E4 D4 C4 |G12 G4 |
%W: B2
% voice 1 (1 lines, 35 notes)
c6 d2 e4 c4 |d2 c2 B2 A2 G4 G4 |A6 B2 c4 A4 |G2 A2 G2 F2 E4 G4 |c6 d2 e4 c4 |d2 c2 B2 A2 G4 G4 |F4 E4 D4 C4 |G12 ||
